public/logo-dark.svg

<svg version="1.1" viewBox="0 0 40.38 37.35" xmlns="http://www.w3.org/2000/svg">
  <path transform="translate(-.7227 -1.728)" d="m33.49 36.04 7.469-29.22c.6023-2.183-.7228-4.486-3.012-4.971-.3614-.1212-.7228-.1212-1.084-.1212h-32.05c-2.289 0-4.096 1.819-4.096 4.123 0 .3638 0 .6063.1205.97l7.469 29.22c.4819 1.819 2.048 3.031 3.976 3.031h17.35c1.807 0 3.373-1.213 3.855-3.031z" fill="#113a54"/>
  <path transform="translate(-.7227 -1.728)" d="m33.01 6.82h-24.21c-1.205 0-2.289.97-2.289 2.304 0 .2425 0 .3638.1205.6063l5.783 22.67c.2409.97 1.205 1.698 2.168 1.698h2.65c1.205 0 2.289-.97 2.289-2.304 0-.2425 0-.3637-.1204-.6062l-1.084-4.608-2.53-1.576h13.73c1.084 0 1.928-.7275 2.168-1.698l3.494-13.58c.3614-1.213-.3614-2.425-1.566-2.789-.241-.1213-.3615-.1213-.6024-.1213z" fill="#fff"/>
  <path transform="translate(-.7227 -1.728)" d="m12.65 13.25 2.53 1.94.6023 2.182c.1205.6063.6024.9701 1.205.9701h9.035c.6024 0 1.084-.3638 1.205-.9701l.7228-4.123z" fill="#113a54"/>
</svg>

<svg width="123" height="40" viewBox="0 0 123 40" fill="none" xmlns="http://www.w3.org/2000/svg">
<path d="M46.7422 32.5263V14.8232H54.8137C55.7774 14.8232 56.6207 14.9445 57.464 15.187C58.0664 15.4295 58.6687 15.7933 59.0301 16.3995C59.3916 17.0058 59.753 17.6121 59.8734 18.2184C59.9939 19.0671 60.1144 19.7947 60.1144 20.6434C60.1144 21.371 60.1144 22.2197 59.8734 22.9473C59.753 23.6748 59.512 24.2811 59.1506 24.7661C58.7892 25.3723 58.1868 25.7361 57.5845 25.9786C56.6207 26.2211 55.7774 26.3424 54.8137 26.3424H50.3563V32.4051H46.7422V32.5263ZM50.3563 23.5535H53.368C53.9704 23.5535 54.5727 23.5535 55.0546 23.4323C55.416 23.4323 55.7774 23.1898 56.0184 22.9473C56.2593 22.7048 56.3798 22.341 56.3798 22.0985C56.5003 21.6135 56.5003 21.1284 56.5003 20.5222C56.5003 20.0372 56.3798 19.5521 56.3798 19.0671C56.3798 18.7034 56.2593 18.4609 56.0184 18.2184C55.7774 17.9758 55.416 17.8546 55.0546 17.7333C54.4523 17.6121 53.9704 17.6121 53.368 17.6121H50.3563V23.5535Z" fill="#113A54"/>
<path d="M67.1015 32.6475C66.3787 32.6475 65.6558 32.5262 65.0535 32.2837C64.5716 32.0412 64.0897 31.7987 63.8488 31.3137C63.4874 30.8287 63.3669 30.3437 63.2464 29.7374C63.126 29.0099 63.126 28.2824 63.126 27.5548V19.3096H66.4991V26.221C66.4991 26.8273 66.4991 27.4336 66.6196 28.1611C66.6196 28.5249 66.7401 28.8886 66.8605 29.1311C66.981 29.3736 67.3424 29.4949 67.5834 29.6162C67.9448 29.7374 68.4267 29.7374 68.7881 29.7374C69.2699 29.7374 69.6314 29.7374 70.1132 29.4949C70.4746 29.3736 70.7156 29.1311 70.8361 28.8886C70.9565 28.5249 71.077 28.1611 71.077 27.7973C71.1975 27.1911 71.1975 26.7061 71.1975 26.0998V19.3096H74.5706V32.5262H71.4384L71.3179 30.8287H71.077C70.8361 31.1925 70.5951 31.5562 70.2337 31.92C69.8723 32.1625 69.3904 32.405 68.9085 32.5262C68.3062 32.6475 67.7038 32.6475 67.1015 32.6475Z" fill="#113A54"/>
<path d="M85.5337 32.6475C85.0519 32.6475 84.4495 32.6475 83.9676 32.5263C83.4857 32.405 83.0039 32.2838 82.6425 32.0413C82.1606 31.7988 81.7992 31.3137 81.6787 30.8287H81.4377L81.3173 32.5263H78.1851V13.3682H81.5582V20.7647H81.6787C81.9196 20.4009 82.281 20.0371 82.6425 19.7946C83.0039 19.5521 83.4857 19.4309 83.9676 19.3096C84.57 19.1884 85.0519 19.1884 85.5337 19.1884C86.2566 19.1884 86.8589 19.3096 87.5817 19.5521C88.1841 19.7946 88.666 20.1584 88.9069 20.6434C89.2683 21.2497 89.5093 21.9772 89.6297 22.7047C89.8707 23.796 89.8707 24.8873 89.8707 25.9786C89.8707 27.0699 89.7502 28.1611 89.6297 29.2524C89.5093 29.98 89.2683 30.7075 88.9069 31.3137C88.5455 31.7988 88.0636 32.1625 87.4613 32.405C86.8589 32.6475 86.2566 32.7688 85.5337 32.6475ZM84.0881 29.7374C84.57 29.7374 85.0519 29.7374 85.4133 29.6162C85.7747 29.6162 86.0156 29.3737 86.1361 29.1312C86.377 28.7674 86.377 28.4037 86.4975 28.0399C86.4975 27.5549 86.618 26.8274 86.618 25.9786C86.618 25.1298 86.618 24.4023 86.4975 23.9173C86.4975 23.5535 86.377 23.1897 86.1361 22.826C85.8951 22.5835 85.6542 22.341 85.4133 22.341C84.9314 22.2197 84.57 22.2197 84.0881 22.2197C83.6062 22.2197 83.2448 22.2197 82.7629 22.341C82.4015 22.4622 82.1606 22.7047 82.0401 22.9472C81.7992 23.311 81.6787 23.6748 81.6787 24.1598C81.5582 24.766 81.5582 25.3723 81.5582 25.9786C81.5582 26.5848 81.5582 27.1911 81.6787 27.7974C81.6787 28.2824 81.7992 28.6462 82.0401 29.0099C82.1606 29.2524 82.522 29.4949 82.7629 29.6162C83.2448 29.6162 83.6062 29.7374 84.0881 29.7374Z" fill="#113A54"/>
<path d="M93.1235 32.5263V13.3682H96.4967V32.5263H93.1235Z" fill="#113A54"/>
<path d="M106.013 32.6468C105.05 32.6468 104.086 32.6468 103.122 32.4043C102.52 32.2831 101.797 32.0406 101.315 31.6768C100.833 31.3131 100.472 30.9493 100.351 30.343C100.11 29.7368 99.99 29.1305 99.8695 28.403C99.8695 27.6754 99.749 26.8267 99.749 25.8566C99.749 24.8866 99.749 23.7953 99.99 22.8253C100.11 22.0978 100.351 21.3702 100.713 20.6427C101.195 20.0364 101.797 19.6727 102.52 19.4302C103.604 19.1877 104.568 19.0664 105.652 19.0664C106.495 19.0664 107.459 19.1877 108.302 19.3089C108.905 19.4302 109.507 19.6727 109.869 20.0364C110.23 20.4002 110.591 20.764 110.712 21.3702C110.953 21.9765 111.073 22.5828 111.073 23.3103C111.073 24.0378 111.194 24.8866 111.194 25.8566V26.8267H103.002C103.002 27.3117 103.002 27.9179 103.122 28.403C103.122 28.7667 103.363 29.0092 103.604 29.373C103.965 29.6155 104.327 29.7368 104.688 29.7368C105.411 29.858 106.013 29.858 106.736 29.858H107.941C108.423 29.858 108.905 29.858 109.387 29.7368C109.869 29.6155 110.35 29.6155 110.712 29.6155V32.1618C110.35 32.2831 109.869 32.2831 109.387 32.4043C108.905 32.5256 108.302 32.5256 107.7 32.5256C107.098 32.5256 106.495 32.6468 106.013 32.6468ZM108.061 25.2504V24.8866C108.061 24.4016 108.061 23.7953 107.941 23.3103C107.941 22.9465 107.821 22.704 107.58 22.4615C107.339 22.219 107.098 22.0978 106.857 22.0978C106.495 21.9765 106.134 21.9765 105.773 21.9765C105.291 21.9765 104.809 21.9765 104.447 22.0978C104.206 22.0978 103.845 22.3403 103.725 22.5828C103.484 22.8253 103.363 23.189 103.363 23.5528C103.243 24.0378 103.243 24.6441 103.243 25.1291H108.423L108.061 25.2504Z" fill="#113A54"/>
<path d="M114.447 32.5264V19.3097H117.579V21.6136H117.82C117.94 21.0073 118.302 20.5223 118.784 20.0373C119.145 19.6735 119.627 19.431 120.109 19.3097C120.711 19.1885 121.314 19.1885 122.036 19.1885V22.4623C121.193 22.4623 120.229 22.5836 119.507 22.9473C118.904 23.3111 118.422 23.7961 118.181 24.4024C117.94 25.3724 117.699 26.3425 117.82 27.3125V32.5264H114.447Z" fill="#113A54"/>
<path d="M33.4905 36.0424L40.9597 6.82021C41.562 4.63763 40.2369 2.33381 37.9479 1.84879C37.5865 1.72754 37.2251 1.72754 36.8637 1.72754H4.81864C2.52971 1.72754 0.722656 3.54635 0.722656 5.85017C0.722656 6.21394 0.722656 6.45644 0.843126 6.82021L8.31227 36.0424C8.79415 37.8612 10.3603 39.0738 12.2878 39.0738H29.6355C31.4425 39.0738 33.0086 37.8612 33.4905 36.0424Z" fill="#113A54"/>
<path d="M33.0088 6.82031H8.7943C7.5896 6.82031 6.50537 7.79034 6.50537 9.12414C6.50537 9.36664 6.50537 9.4879 6.62584 9.73041L12.4084 32.4049C12.6493 33.3749 13.6131 34.1024 14.5769 34.1024H17.2272C18.4319 34.1024 19.5161 33.1324 19.5161 31.7986C19.5161 31.5561 19.5161 31.4349 19.3957 31.1924L18.3114 26.5847L15.7816 25.0084H29.5152C30.5994 25.0084 31.4427 24.2809 31.6836 23.3108L35.1773 9.73041C35.5387 8.51787 34.8159 7.30533 33.6112 6.94157C33.3702 6.82031 33.2497 6.82031 33.0088 6.82031Z" fill="white"/>
<path d="M12.6494 13.2461L15.1793 15.1862L15.7816 17.3687C15.9021 17.975 16.384 18.3388 16.9863 18.3388H26.0216C26.624 18.3388 27.1058 17.975 27.2263 17.3687L27.9491 13.2461H12.6494Z" fill="#113A54"/>
</svg>
